X:1
T:Title
%%score { ( 1 3 ) | 2 }
L:1/8
M:4/4
K:Bb
V:1 treble nm="Grand Piano"
V:3 treble 
V:2 bass 
V:1
 z4 z2 z[Q:1/4=92] [DF] | [DF]>[DF] [DB][Ec] [Fd] [Fd]2 [DB] | cB G>B [DF]3 [DF] | %3
 [DF]>[DF] [DB][Ec] [Fd] [Fd]2 [FB] | [=Ed][Ec][Ec][Ed] [_Ec]3 [EF] | [DF]>[DF] [DB]c d d2 [DB] | %6
[M:3/4] cB GB [DF]2 |[M:1/4] [GB]>[^Fc] |[M:4/4] d d2 B c c2 A |[M:3/4] [DB]6 |[M:1/4] [DF]2 | %11
[M:4/4] [Fd]4 z4 |[M:7/8] GBA>G [DF]3 |[M:1/8] [DF] | %14
[M:4/4] [Fd]>[Fd] [Fd]>[Ec] [Ec]<[DB] [FB][FB] | [=EB][EG][EA][EB] [_Ec]3 [EF] | %16
 [Fd]>[Fd] [Fd][Ec] [Ec] [DB]2 [DA] | G<B A>G [DF]3 [DF] | G>G BG [DF][DF][GB][^Fc] | %19
[M:7/8] d>Bc<c [DFB]3 |] %20
V:2
 z4 z2 z [B,,B,] | [B,,B,]>[B,,B,] [B,,B,][B,,B,] [B,,B,] [B,,B,]2 [B,,F,] | %2
 [E,G,E][E,G,E] [E,B,E]>[E,G,E] [B,,B,]3 [B,,B,] | %3
 [B,,B,]>[B,,B,] [B,,B,][B,,B,] [B,,B,] [B,,B,]2 [D,B,] | [C,B,][C,B,][C,B,][C,B,] [F,A,]3 [F,C] | %5
 [B,,B,]>[B,,B,] [B,,B,][F,A,E][K:treble] [B,F] [B,F]2[K:bass] [B,,F,] | %6
[M:3/4] [E,G,E][E,G,E] [E,B,E][E,G,E] [B,,B,]2 |[M:1/4] [E,B,]>[E,B,] | %8
[M:4/4] [F,B,F] [F,B,F]2 [F,B,D] [F,A,E] [F,A,E]2 [F,CE] |[M:3/4] [B,,B,]6 |[M:1/4] [B,,B,]2 | %11
[M:4/4] [B,,B,]>B,, F,[F,A,E] [B,,F,]3 [B,,B,] |[M:7/8] [E,B,E][E,G,E][E,A,E]>[E,B,E] [B,,B,]3 | %13
[M:1/8] [B,,B,] |[M:4/4] [B,,B,]>[B,,B,] [B,,B,]>[F,A,] [F,A,]<[B,,F,] [D,B,][D,B,] | %15
 [C,C][C,C][C,C][C,B,] [F,A,]3 [F,A,] | [B,,B,]>[B,,B,] [F,B,][F,A,] [B,,A,] [B,,F,]2 [B,,B,] | %17
 [E,B,E]<[E,G,E] [E,A,E]>[E,B,E] [B,,B,]3 [B,,B,] | %18
 [E,B,E]>[E,B,E] [E,G,E][E,B,E] [B,,B,][B,,B,][E,B,][E,B,] | %19
[M:7/8] [F,B,F]>[F,DF][F,EF]<[F,EF] [B,,B,]3 |] %20
V:3
 x8 | x8 | x8 | x8 | x8 | x8 |[M:3/4] x6 |[M:1/4] x2 |[M:4/4] x8 |[M:3/4] x6 |[M:1/4] x2 | %11
[M:4/4] z z/ B,/ B,c [DB]3 [DA] |[M:7/8] x7 |[M:1/8] x |[M:4/4] x8 | x8 | x8 | x8 | x8 | %19
[M:7/8] x7 |] %20

